src/icons/label.svg

<?xml version="1.0" encoding="UTF-8"?>
<svg width="14px" height="14px" viewBox="0 0 14 14" version="1.1" xmlns="http://www.w3.org/2000/svg" xmlns:xlink="http://www.w3.org/1999/xlink">
    <path d="M13.6583021,7.43892413 L7.05097794,0.840917918 C6.81680307,0.60664811 6.50268183,0.408046349 6.10842003,0.244853703 C5.71402876,0.0816286898 5.35365515,0 5.02710501,0 L1.18285014,0 C0.862449716,0 0.5852268,0.117134904 0.35111666,0.351113413 C0.11700652,0.585221388 0,0.86244174 0,1.1828392 L0,5.02705852 C0,5.35357328 0.0815323438,5.71384645 0.2448236,6.10823408 C0.408114856,6.5026217 0.606750821,6.8135681 0.840925695,7.04159114 L7.44815277,13.6580787 C7.67611319,13.886037 7.95314191,14 8.27988625,14 C8.59999538,14 8.88055209,13.886037 9.12077958,13.6580787 L13.6581727,9.11153547 C13.8861331,8.88348006 14,8.60648628 14,8.27993915 C14,7.95957405 13.8861331,7.6792465 13.6583021,7.43892413 Z M3.79340639,3.79340368 C3.56224164,4.02443682 3.28356221,4.14001813 2.95701207,4.14001813 C2.63059139,4.14001813 2.35178249,4.02443682 2.12074721,3.79340368 C1.88971193,3.56233817 1.77422666,3.28366132 1.77422666,2.95714656 C1.77422666,2.63059943 1.88971193,2.35182548 2.12074721,2.12088944 C2.35181486,1.88982393 2.63059139,1.77424262 2.95701207,1.77424262 C3.28356221,1.77424262 3.56233874,1.88982393 3.79340639,2.12088944 C4.02434457,2.35182548 4.13992694,2.6306318 4.13992694,2.95714656 C4.13992694,3.28366132 4.02447404,3.56233817 3.79340639,3.79340368 Z"></path>
</svg>

<svg viewBox="0 0 14 14" xmlns="http://www.w3.org/2000/svg">
    <path d="M13.658 7.439L7.051.84C6.817.607 6.503.408 6.108.245 5.714.082 5.354 0 5.028 0H1.182C.863 0 .585.117.35.351a1.137 1.137 0 00-.35.832v3.844c0 .327.082.687.245 1.081.163.395.362.706.596.934l6.607 6.616c.228.228.505.342.832.342.32 0 .6-.114.84-.342l4.538-4.546c.228-.229.342-.506.342-.832 0-.32-.114-.6-.342-.841zM3.793 3.793a1.14 1.14 0 01-.836.347 1.14 1.14 0 01-.836-.347 1.14 1.14 0 01-.347-.836c0-.326.116-.605.347-.836a1.14 1.14 0 01.836-.347c.327 0 .605.116.836.347.231.23.347.51.347.836 0 .327-.116.605-.347.836z"/>
</svg>
